sources/images/icons/nintendo-switch.svg

<svg width="152" height="152" viewBox="0 0 152 152" fill="none" xmlns="http://www.w3.org/2000/svg">
<path d="M89.7813 152H113.05C134.431 152 152 134.431 152 113.05V38.95C152 17.575 134.431 0 113.05 0H89.3C88.8313 0 88.35 0.468667 88.35 0.95V151.05C88.3437 151.531 88.825 152 89.7813 152ZM118.75 68.4063C127.306 68.4063 133.944 75.5313 133.944 83.5937C133.944 92.1563 126.819 98.7937 118.75 98.7937C110.2 98.7937 103.55 92.15 103.55 83.5937C103.075 75.05 110.2 68.4063 118.75 68.4063ZM72.2 0H38.95C17.575 0 0 17.575 0 38.95V113.05C0 134.431 17.575 152 38.95 152H72.2C72.6687 152 73.15 151.531 73.15 151.056V0.95C73.1563 0.468667 72.675 0 72.2 0ZM61.2813 139.656H38.95C24.2187 139.656 12.3437 127.781 12.3437 113.05V38.95C12.3437 24.2187 24.2187 12.3437 38.95 12.3437H60.8L61.2813 139.656ZM23.75 45.5937C23.75 53.6687 29.925 59.8437 38 59.8437C46.075 59.8437 52.25 53.6687 52.25 45.5937C52.25 37.5313 46.075 31.3437 38 31.3437C29.925 31.3437 23.75 37.5313 23.75 45.5937Z" fill="black"/>
</svg>

<svg xmlns="http://www.w3.org/2000/svg" width="152" height="152" fill="none" viewBox="0 0 152 152"><path fill="#000" d="M89.8 152H113c21.3 0 38.9-17.6 38.9-39V39c0-21.4-17.6-39-39-39H89.3c-.5 0-1 .5-1 1v150c0 .5.5 1 1.5 1m29-83.6c8.5 0 15.1 7.1 15.1 15.2 0 8.6-7 15.2-15.2 15.2a15 15 0 0 1-15.2-15.2c-.4-8.6 6.7-15.2 15.2-15.2M72.2 0H38.9C17.7 0 0 17.6 0 39v74c0 21.4 17.6 39 39 39h33.2c.5 0 1-.5 1-1V1c0-.5-.5-1-1-1m-11 139.7H39A26.6 26.6 0 0 1 12.4 113V39A26.6 26.6 0 0 1 39 12.3h21.8zM23.8 45.6c0 8 6.2 14.2 14.3 14.2s14.3-6.1 14.3-14.2c0-8-6.2-14.3-14.3-14.3s-14.3 6.2-14.3 14.3"/></svg>
